svg/material-icons/60fps_select/materialiconssharp/24px.svg

<svg xmlns="http://www.w3.org/2000/svg" width="24" height="24" viewBox="0 0 24 24"><path d="M18 6v6h-3V6h3zm2-2h-7v10h7V4zm-9 2V4H4v10h7V8H6V6h5zm-2 4v2H6v-2h3zM5 22H3v-5h2v5zm4 0H7v-5h2v5zm4 0h-2v-5h2v5zm8 0h-6v-5h6v5z"/></svg>

<svg xmlns="http://www.w3.org/2000/svg" enable-background="new 0 0 24 24" height="24" viewBox="0 0 24 24" width="24"><g><rect fill="none" height="24" width="24"/></g><g><g><path d="M18,6v6h-3V6H18z M20,4h-7v10h7V4z M11,6V4H4v10h7V8H6V6H11z M9,10v2H6v-2H9z M5,22H3v-5h2V22z M9,22H7v-5h2V22z M13,22 h-2v-5h2V22z M21,22h-6v-5h6V22z"/></g></g></svg>
